X:3
T:Les Poules Hupp\'ees
T:Crested Hens, The
R:bourree
C:Gilles Chabenat
O:France
Z:id:hn-bourree-3
M:3/8
L:1/16
Q:1/8=190
K:Ddor
D2 DFED | A4 AB | cBAdcB | cBAGEF |
D2 DFED | A4 AB | cBAdcd |1 A6 :|2 A2 d2 e2 ||
|: f2 Af Af | _B3 cde | fdgfed | ^c2 d2 e2 |
f2 Af Af | _B3 cde | fdgfe^c |1 d2 d2 e2 :|2 d6 ||

